X: 1
T: Moll And Tiarna
M: 4/4
L: 1/8
R: reel
K: Dmaj
Ad (3ddd efdB|Ad (3ddd BedB|Ad (3ddd efde|fage fddB|
Ad (3ddd efdB|Ad (3ddd BedB|Ad (3ddd efdB|1cA (3AAA cA (3AAA:|2cA (3AAA cdeg||
fAgA fAgA|fage fdde|fAgA fefg|aA (3AAA afge|
fAgA fAgA|fage fefg|abag efed|1cA (3AAA cdeg:|2cA (3AAA cA (3AAA||
